X:1
T:Title
%%score 1 2 3 4
L:1/8
M:3/4
K:Bb
V:1 treble nm="Church Organ, Church Organ"
V:2 treble nm="French Horn, French Horn"
V:3 bass nm="Trombone, Trombone"
V:4 bass nm="Tuba, Tuba"
V:1
 F2 G2 A2 | BA B4 | d2 B2 G2 | G4 F2 | F2 A2 B2 | c=B c4 | e2 e2 e2 | d4 z2 | F2 G2 A2 | BA B4 | %10
w: By~E.~G.~Snelling * *||||||||||
 d2 e2 =B2 | d4 c2 | B2 G2 B2 | FG F4 | G2 e2 A2 | B4 z2 | d2 c2 B2 | B2 A2 E2 | B2 A2 E2 | G4 F2 | %20
w: ||||||||||
 F2 G2 A2 | B2 c2 d2 | c2 G2 d2 | c4 z2 | d2 c2 B2 | B2 A2 E2 | B2 A2 E2 | G4 F2 | d2 e2 d2 | %29
w: |||||||||
 d2 c2 G2 | A2 B2 c2 | B4 z2 |] %32
w: |||
V:2
 z6 | z6 | F2 D2 D2 | E4 E2 | z6 | z6 | F2 G2 A2 | B4 z2 | z6 | z6 | F2 F2 F2 | E4 E2 | z6 | z6 | %14
w: ||Peace ful~ and~|ho ly,~|||Gleam ing~ a|far.~|||Shep herds~ so~|low ly,~|||
 E2 E2 E2 | D4 z2 | F2 E2 D2 | E2 E2 z2 | E2 E2 z2 | D4 D2 | D2 D2 D2 | D2 D2 D2 | =E2 E2 E2 | %23
w: Saw~ glo ry�s~|star.~|Hail~ to~ the~|star ry~|Spark ling~|glo ry;~|An gels~ on~|wings~ of~ light,~|Throng ing~ the~|
 [FA]4 z2 | F2 E2 D2 | E2 E2 z2 | E2 E2 z2 | D4 D2 | F2 F2 F2 | E2 E2 E2 | E2 E2 E2 | D4 z2 |] %32
w: sky.~|Hail~ to~ that~|star ry~|Won drous~|sto ry:~|Je sus~ the~|Prince~ of~ Light,~|Came~ from~ a|bove.~|
V:3
 B,,2 z2 z2 | z6 | B,,2 z2 z2 | C,2 z2 z2 | F,,2 z2 z2 | A,,2 z2 z2 | F,,2 z2 z2 | B,,2 z2 z2 | %8
 B,,2 z2 z2 | z6 | G,,2 z2 z2 | C,2 z2 z2 | z6 | z6 | z6 | z6 | B,,2 z2 z2 | C,2 z2 z2 | %18
 F,,2 z2 z2 | B,,2 z2 z2 | B,,2 z2 z2 | G,,2 z2 z2 | C,2 z2 z2 | F,,2 z2 z2 | B,,2 z2 z2 | %25
 C,2 z2 z2 | F,,2 z2 z2 | B,,2 z2 z2 | G,,2 z2 z2 | C,2 z2 z2 | z6 | z6 |] %32
V:4
 z2 [F,B,D]2 [F,B,D]2 | z2 [F,B,D]2 [F,B,D]2 | z2 [F,B,]2 [F,B,]2 | z2 [F,B,]2 [F,B,]2 | %4
 z2 [F,A,CE]2 [F,A,CE]2 | z2 [F,A,CE]2 [F,A,CE]2 | z2 [F,A,CE]2 [F,A,CE]2 | z2 [F,B,D]2 [F,B,D]2 | %8
 z2 [F,B,D]2 [F,B,D]2 | z2 [F,B,D]2 [F,B,D]2 | z2 [F,G,=B,]2 [F,G,B,]2 | z2 [E,G,C]2 [E,G,C]2 | %12
 z2 [G,B,_D]2 [G,B,D]2 | z2 [B,D]2 [B,D]2 | [E,B,]2 [C,C]2 [F,C]2 | [B,,B,]4 z2 | %16
 z2 [F,B,]2 [F,B,]2 | z2 [F,B,]2 [F,B,]2 | z2 [F,A,]2 [F,A,]2 | z2 [F,B,]2 [F,B,]2 | %20
 z2 [F,B,]2 [F,B,]2 | z2 [D,G,B,]2 [D,G,B,]2 | z2 [G,B,C]2 [G,B,C]2 | z2 [F,A,E]2 [F,A,E]2 | %24
 z2 [F,B,]2 [F,B,]2 | z2 [F,A,]2 [F,A,]2 | z2 [F,A,]2 [F,A,]2 | z2 [F,B,]2 [F,B,]2 | %28
 z2 [F,G,=B,]2 [F,G,B,]2 | z2 [E,G,C]2 [E,G,C]2 | F,2 [A,C]2 [A,C]2 | [B,,B,]4 z2 |] %32

